packages/ffe-icons/icons/filled/md/spoke.svg

<svg xmlns="http://www.w3.org/2000/svg" height="24" viewBox="0 -960 960 960" width="24"><path d="M480-540.001q-57.749 0-98.874-41.125-41.125-41.125-41.125-98.874 0-57.749 41.125-98.874 41.125-41.125 98.874-41.125 57.749 0 98.874 41.125 41.125 41.125 41.125 98.874 0 57.749-41.125 98.874-41.125 41.125-98.874 41.125Zm-200 400q-57.749 0-98.874-41.125-41.125-41.125-41.125-98.874 0-57.749 41.125-98.874 41.125-41.125 98.874-41.125 57.749 0 98.874 41.125 41.125 41.125 41.125 98.874 0 57.749-41.125 98.874-41.125 41.125-98.874 41.125Zm400 0q-57.749 0-98.874-41.125-41.125-41.125-41.125-98.874 0-57.749 41.125-98.874 41.125-41.125 98.874-41.125 57.749 0 98.874 41.125 41.125 41.125 41.125 98.874 0 57.749-41.125 98.874-41.125 41.125-98.874 41.125Z"/></svg>

<svg xmlns="http://www.w3.org/2000/svg" height="24" viewBox="0 -960 960 960" width="24"><path d="M480-540q-57.75 0-98.87-41.13Q340-622.25 340-680q0-57.75 41.13-98.87Q422.25-820 480-820q57.75 0 98.87 41.13Q620-737.75 620-680q0 57.75-41.13 98.87Q537.75-540 480-540ZM280-140q-57.75 0-98.87-41.13Q140-222.25 140-280q0-57.75 41.13-98.87Q222.25-420 280-420q57.75 0 98.87 41.13Q420-337.75 420-280q0 57.75-41.13 98.87Q337.75-140 280-140Zm400 0q-57.75 0-98.87-41.13Q540-222.25 540-280q0-57.75 41.13-98.87Q622.25-420 680-420q57.75 0 98.87 41.13Q820-337.75 820-280q0 57.75-41.13 98.87Q737.75-140 680-140Z"/></svg>
